X:1
T:Title
%%score { ( 1 4 ) | ( 2 3 ) }
L:1/8
M:4/4
K:Eb
V:1 treble nm="Grand Piano"
V:4 treble 
V:2 bass 
V:3 bass 
V:1
 z4 z2[Q:1/4=88] EF | [B,G]2 [G,E][A,F] [B,G] [B,G]2 .[DB] | [CA]2 [CE][=B,F] [_B,G]3 [B,G] | %3
 [B,G]2 [B,F][B,=E] [DF] [DB]2 [Dc] | .B2 z2 z4 | [B,G]2 [G,E][A,F] [B,G] [B,G]2 [_DB] | %6
 [_DB] [Dc]2 [DB] [CA]3 [CA] | z2 .G2 z4 |[M:11/16] [Fd][DB][Ec]-<[Ec][DB]3/2 | %9
[M:3/8] [GB][_Gc][=GB] |[M:4/4] G2 G2 A2 [DF]2 | [EB]4 z [GB][_Gc][=GB] | %12
 [DF]2 [Fd]2 [Ge]2 [CE=A]2 | [B,DB]4 z Bcd | [Ge]2 [EG]2 [EA]2 [EB]2 | [Ec]6 [Ee]2 | %16
 [EB]2 [Ec]2 [DA] [DF]3 |[M:3/4] E6 |] %18
V:2
 z4 z2 G,A, | E,,B,,E,B,, E,,B,, .E,>_D | A,,E,A,E, E,,B,,E,B,, | B,,F,A,G, B,,F,A,F, | %4
 z2 .B,2 z4 | E,,B,,E,B,, E,,B,,E,B,, | G,,E,G,F, A,,E,A,E, | F,,C,F,C, B,,F,B,F, | %8
[M:11/16] F,,F,=A,F,[B,,F,]3/2 |[M:3/8] [E,B,][E,=A,][E,B,] | %10
[M:4/4] [E,B,E]2 [=E,B,_D]2 [F,B,=D]2 [B,,B,]2 | [E,G,]4 z [E,B,][E,=A,][E,B,] | %12
 [F,B,]2 [D,B,]2 [C,B,]2 F,2 | B,,4 z B,[K:treble][B,=A][B,_A] | %14
 [E,B,]2 [_D,B,]2 [C,A,]2 [B,,G,]2 | [=A,,_G,]6 [A,,G,]2 | [B,,G,]2 [B,,A,]2 [B,,F,] [B,,A,]3 | %17
[M:3/4] [E,G,]6 |] %18
V:3
 x8 | z4 z2 z B,, | x8 | x8 | B,,A,D-[CD] E,,B,,E,B,, | x8 | x8 | x8 |[M:11/16] x11/2 |[M:3/8] x3 | %10
[M:4/4] x8 | x8 | x8 | x6[K:treble] x2 | x8 | x8 | x8 |[M:3/4] x6 |] %18
V:4
 x8 | x8 | x8 | x8 | D-[DF]GA [B,G]3 [B,G] | x8 | x8 | [E=A]2 E-[EF] [DF] [DB]2 [Ec] | %8
[M:11/16] x11/2 |[M:3/8] x3 |[M:4/4] x8 | x8 | x8 | x8 | x8 | x8 | x8 |[M:3/4] x6 |] %18

